packages/core/src/svgs/eos.svg

<svg width="24" height="24" viewBox="0 0 24 24" fill="none" xmlns="http://www.w3.org/2000/svg">
<g clip-path="url(#clip0_31_9968)">
<path d="M0 0H24V24H0V0Z" fill="url(#paint0_linear_31_9968)"/>
<path fill-rule="evenodd" clip-rule="evenodd" d="M11.8735 3.2846C11.8962 3.26796 11.9219 3.25596 11.9493 3.24928C11.9766 3.2426 12.005 3.24138 12.0328 3.24568C12.0607 3.24998 12.0874 3.25971 12.1114 3.27433C12.1355 3.28895 12.1564 3.30817 12.173 3.33089L15.8133 8.3006C15.8305 8.32417 15.8425 8.35074 15.8493 8.37903L17.6125 16.0235C17.622 16.0651 17.619 16.1086 17.6036 16.1485C17.5883 16.1884 17.5613 16.2227 17.5263 16.2472L12.1606 19.9955C12.1257 20.0346 12.0776 20.0597 12.0255 20.0657C11.9733 20.0718 11.9208 20.0586 11.8778 20.0285L6.4799 16.2472C6.44495 16.2227 6.41813 16.1883 6.40286 16.1484C6.38759 16.1086 6.38457 16.065 6.39418 16.0235L8.15733 8.37903C8.16388 8.35072 8.17613 8.32403 8.19333 8.3006L11.8049 3.36774C11.82 3.33472 11.8433 3.3061 11.8726 3.2846H11.8735ZM12.0029 3.82374L8.60261 8.4686L10.9538 15.8572H13.0469L15.4032 8.46603L12.0029 3.82374ZM15.6072 9.2366L13.4965 15.8572H17.1342L15.6072 9.2366ZM16.7228 16.2857H13.3598L12.3968 19.3072L16.7228 16.2857ZM11.999 19.143L12.9102 16.2857H11.09L11.999 19.143ZM10.5042 15.8572L8.39947 9.24174L6.87333 15.8572H10.5042ZM7.28347 16.2857H10.6409L11.6039 19.3132L7.28304 16.2857H7.28347Z" fill="white"/>
</g>
<defs>
<linearGradient id="paint0_linear_31_9968" x1="4.46486" y1="4.16229" x2="29.2059" y2="32.5787" gradientUnits="userSpaceOnUse">
<stop stop-color="#1A1E21"/>
<stop offset="1" stop-color="#06060A"/>
</linearGradient>
<clipPath id="clip0_31_9968">
<rect width="24" height="24" fill="white"/>
</clipPath>
</defs>
</svg>

<svg xmlns="http://www.w3.org/2000/svg" width="24" height="24" fill="none" viewBox="0 0 24 24"><g clip-path="url(#a)"><path fill="url(#b)" d="M0 0h24v24H0z"/><path fill="#fff" fill-rule="evenodd" d="M11.874 3.285a.214.214 0 0 1 .299.046l3.64 4.97a.2.2 0 0 1 .036.078l1.764 7.644a.21.21 0 0 1-.087.224l-5.365 3.749a.214.214 0 0 1-.283.033L6.48 16.247a.21.21 0 0 1-.086-.224L8.157 8.38a.2.2 0 0 1 .036-.078l3.612-4.933a.2.2 0 0 1 .068-.083m.129.539-3.4 4.645 2.35 7.388h2.094l2.356-7.391zm3.604 5.413-2.11 6.62h3.637zm1.116 7.049H13.36l-.963 3.021zm-4.724 2.857.911-2.857h-1.82zm-1.495-3.286L8.4 9.242l-1.526 6.615zm-3.22.429h3.357l.963 3.027z" clip-rule="evenodd"/></g><defs><linearGradient id="b" x1="4.465" x2="29.206" y1="4.162" y2="32.579" gradientUnits="userSpaceOnUse"><stop stop-color="#1A1E21"/><stop offset="1" stop-color="#06060A"/></linearGradient><clipPath id="a"><path fill="#fff" d="M0 0h24v24H0z"/></clipPath></defs></svg>
